X: 23
T: The Seven Step
R: barndance
M: 4/4
L: 1/8
K: Amaj
|: (3EFG |A4 A4 | A>Bc>A F2 E2 | c4 c4 | c>de>c B2- B3/ ||
B/ |c>de>c B2 A2 | A>Bc>A F2 ^E2 | E>FA>B c>ee>c | c2 B2 B2 =c2 |
c>de>c A4 | A>B (3cBA F2 ^E2 | E>FA>B c>e-e>c | B2 A2 A2 |]


Tune 1307	Setting 14625

